tools/download-figma-icons/icons/outlined-large/energy-fire.svg

<svg width="64" height="64" viewBox="0 0 64 64" fill="none" xmlns="http://www.w3.org/2000/svg">
<path fill-rule="evenodd" clip-rule="evenodd" d="M33.3443 4.19565C18.9875 15.7235 11.9996 28.2604 11.9996 42.4612C11.9996 53.6781 19.2895 58.2361 23.8834 59.9951C22.6345 57.5691 21.4055 54.0421 21.7435 49.9172C22.1845 44.5562 25.1394 39.5983 30.5284 35.1793C31.0174 34.7773 31.7074 34.7263 32.2514 35.0533C32.7944 35.3813 33.0743 36.0123 32.9493 36.6343C31.8514 42.1143 34.7213 45.0492 37.4953 47.8862C39.0773 49.5052 40.5723 51.0332 41.2933 52.9571C42.2743 55.5691 41.9253 58.0761 41.2973 59.9781C45.4582 58.1681 52.1831 53.5271 51.9951 42.4862C51.9031 37.0273 48.5952 32.4304 44.7652 27.1084C40.4223 21.0755 35.5433 14.2965 33.3443 4.19565ZM38.4003 64C37.8903 64 37.4073 63.74 37.1303 63.299C36.8023 62.777 36.8263 62.11 37.1903 61.614C37.2393 61.546 39.9013 57.7871 38.4853 54.0091C37.9853 52.6771 36.7053 51.3702 35.3513 49.9842C32.9593 47.5382 30.1024 44.6162 29.7404 39.9853C26.7174 43.1672 25.0374 46.5672 24.7364 50.1292C24.1924 56.5591 28.3814 61.465 28.4234 61.513C28.8354 61.988 28.9094 62.671 28.6074 63.221C28.3044 63.772 27.6834 64.072 27.0704 63.983C26.8894 63.956 8.9996 61.0401 8.9996 42.4612C8.9996 26.6424 16.9965 12.8536 33.4473 0.30769C33.8643 -0.0123067 34.4183 -0.086306 34.9093 0.105692C35.3993 0.29969 35.7503 0.736685 35.8353 1.25668C37.6163 12.0416 42.7072 19.1155 47.1992 25.3564C51.3242 31.0874 54.8861 36.0373 54.9951 42.4352C55.1561 51.9171 50.7142 57.2771 46.9592 60.1031C42.9152 63.147 38.8493 63.941 38.6783 63.973C38.5853 63.991 38.4913 64 38.4003 64Z" fill="black"/>
</svg>

<svg xmlns="http://www.w3.org/2000/svg" width="64" height="64" fill="none" viewBox="0 0 64 64"><path fill="currentColor" fill-rule="evenodd" d="M33.344 4.196C18.988 15.724 12 28.26 12 42.46c0 11.217 7.29 15.775 11.883 17.534-1.248-2.426-2.477-5.953-2.14-10.078.442-5.36 3.396-10.319 8.785-14.738a1.498 1.498 0 0 1 2.421 1.455c-1.098 5.48 1.772 8.415 4.546 11.252 1.582 1.62 3.077 3.147 3.798 5.071.981 2.612.632 5.12.004 7.021 4.161-1.81 10.886-6.45 10.698-17.492-.092-5.459-3.4-10.056-7.23-15.378-4.343-6.032-9.222-12.811-11.42-22.912M38.4 64a1.5 1.5 0 0 1-1.21-2.386c.05-.068 2.711-3.827 1.295-7.605-.5-1.332-1.78-2.639-3.134-4.025-2.392-2.446-5.249-5.368-5.61-9.999-3.024 3.182-4.704 6.582-5.005 10.144-.544 6.43 3.645 11.336 3.687 11.384.412.475.486 1.158.184 1.708a1.51 1.51 0 0 1-1.537.762C26.89 63.956 9 61.04 9 42.461 9 26.642 16.997 12.854 33.447.308a1.5 1.5 0 0 1 2.388.949c1.781 10.785 6.872 17.859 11.364 24.1 4.125 5.73 7.687 10.68 7.796 17.078.161 9.482-4.28 14.842-8.036 17.668-4.044 3.044-8.11 3.838-8.28 3.87A1.5 1.5 0 0 1 38.4 64" clip-rule="evenodd"/></svg>
